assets/icons/qvision/laptop_mac.svg

<svg width="24" height="24" viewBox="0 0 24 24" fill="none" xmlns="http://www.w3.org/2000/svg">
<g clip-path="url(#clip0_147_3017)">
<path d="M20 18C21.1 18 21.99 17.1 21.99 16L22 5C22 3.9 21.1 3 20 3H4C2.9 3 2 3.9 2 5V16C2 17.1 2.9 18 4 18H0C0 19.1 0.9 20 2 20H22C23.1 20 24 19.1 24 18H20ZM4 5H20V16H4V5ZM12 19C11.45 19 11 18.55 11 18C11 17.45 11.45 17 12 17C12.55 17 13 17.45 13 18C13 18.55 12.55 19 12 19Z" fill="#323232"/>
</g>
<defs>
<clipPath id="clip0_147_3017">
<rect width="24" height="24" fill="white"/>
</clipPath>
</defs>
</svg>

<svg xmlns="http://www.w3.org/2000/svg" height="24" viewBox="0 0 24 24" width="24"><path d="M0 0h24v24H0z" fill="none"/><path d="M20 18c1.1 0 1.99-.9 1.99-2L22 5c0-1.1-.9-2-2-2H4c-1.1 0-2 .9-2 2v11c0 1.1.9 2 2 2H0c0 1.1.9 2 2 2h20c1.1 0 2-.9 2-2h-4zM4 5h16v11H4V5zm8 14c-.55 0-1-.45-1-1s.45-1 1-1 1 .45 1 1-.45 1-1 1z"/></svg>
